X:1
T:The Road to Lisdoonvama
L:1/8
M:6/8
I:linebreak $
K:D
V:1 treble nm="Voice" snm="Voice"
V:1
"Em" E2 B B2 A | B2 c d2 D2 |"D" F2 A ABA | D2 E FED |$"Em" E2 B B2 A | B2 c d3 | cdc"Bm" B2 A | %7
 B2 E E3 |]$"Em" e2 f gfe |"G" d2 B Bcd | c2 A ABc | d2 B B3 |$"Em" e2 f gfe |"G" d2 B Bcd | %14
 cdc"Bm" B2 A | B2 E E3 :| %16
